dist/img/icons/experience/js.svg

<svg width="33" height="33" viewBox="0 0 33 33" fill="none" xmlns="http://www.w3.org/2000/svg">
<path d="M8.25 4.125C7.15598 4.125 6.10677 4.5596 5.33318 5.33318C4.5596 6.10677 4.125 7.15598 4.125 8.25V24.75C4.125 25.844 4.5596 26.8932 5.33318 27.6668C6.10677 28.4404 7.15598 28.875 8.25 28.875H24.75C25.844 28.875 26.8932 28.4404 27.6668 27.6668C28.4404 26.8932 28.875 25.844 28.875 24.75V8.25C28.875 7.15598 28.4404 6.10677 27.6668 5.33318C26.8932 4.5596 25.844 4.125 24.75 4.125H8.25ZM18.3342 22.0756C19.3242 22.8731 20.3115 23.265 21.2987 23.2554C21.9037 23.2554 22.3685 23.1454 22.6903 22.9226C22.8405 22.8251 22.9627 22.6901 23.0449 22.531C23.1272 22.3719 23.1665 22.1941 23.1591 22.0151C23.1611 21.8199 23.1203 21.6267 23.0395 21.449C22.9587 21.2713 22.84 21.1135 22.6916 20.9866C22.3685 20.7047 21.758 20.4229 20.8601 20.1396C19.7821 19.8275 18.9489 19.4246 18.3645 18.9296C17.7897 18.4346 17.4983 17.7444 17.4873 16.8575C17.4873 16.0201 17.8503 15.3202 18.5763 14.7551C19.283 14.1914 20.185 13.9081 21.285 13.9081C22.8167 13.9081 24.0474 14.2807 24.9741 15.0274L23.9154 16.676C23.5342 16.3795 23.0968 16.1634 22.6298 16.0408C22.21 15.9004 21.7715 15.8239 21.329 15.8139C20.8065 15.8139 20.3871 15.9101 20.0736 16.1013C19.7615 16.2938 19.6061 16.5454 19.6061 16.8575C19.6061 17.2013 19.7972 17.4927 20.1795 17.7347C20.5645 17.9671 21.219 18.2242 22.1458 18.5061C23.265 18.8389 24.0625 19.283 24.5355 19.8371C25.0099 20.3913 25.2464 21.098 25.2464 21.9546C25.2464 22.8319 24.9095 23.5881 24.233 24.2234C23.5675 24.849 22.5995 25.1763 21.329 25.2065C19.6653 25.2065 18.2737 24.7074 17.1545 23.7091L18.3342 22.0756ZM10.7305 22.9529C11.0536 23.155 11.4414 23.2554 11.8951 23.2554C12.3695 23.2554 12.7614 23.1192 13.0749 22.847C13.387 22.5651 13.5438 22.0756 13.5438 21.3799V14.0896H15.5856V21.7731C15.5554 22.9625 15.213 23.8205 14.5571 24.3444C14.1993 24.6487 13.7821 24.8753 13.332 25.0099C12.9151 25.1369 12.4821 25.2031 12.0464 25.2065C11.2901 25.2065 10.6191 25.0759 10.0347 24.8132C9.40912 24.5314 8.88525 24.0323 8.46175 23.3159L9.8835 22.1513C10.1448 22.5046 10.428 22.7714 10.7305 22.9529Z" fill="#D6BD96"/>
</svg>

<svg width="33" height="33" fill="none" xmlns="http://www.w3.org/2000/svg"><path d="M8.25 4.125A4.125 4.125 0 0 0 4.125 8.25v16.5a4.125 4.125 0 0 0 4.125 4.125h16.5a4.125 4.125 0 0 0 4.125-4.125V8.25a4.125 4.125 0 0 0-4.125-4.125H8.25Zm10.084 17.95c.99.798 1.977 1.19 2.965 1.18.605 0 1.07-.11 1.391-.332a1.031 1.031 0 0 0 .47-.908 1.334 1.334 0 0 0-.468-1.028c-.323-.282-.934-.564-1.832-.847-1.078-.313-1.911-.715-2.495-1.21-.575-.495-.867-1.186-.878-2.072 0-.838.363-1.538 1.09-2.103.706-.564 1.608-.847 2.708-.847 1.532 0 2.762.373 3.69 1.12l-1.06 1.648a3.571 3.571 0 0 0-1.285-.635 4.416 4.416 0 0 0-1.301-.227c-.523 0-.942.096-1.255.287-.313.193-.468.444-.468.757 0 .343.191.635.573.877.386.232 1.04.49 1.967.771 1.119.333 1.916.777 2.39 1.331.474.554.71 1.261.71 2.118 0 .877-.336 1.633-1.013 2.268-.666.626-1.634.953-2.904.983-1.664 0-3.055-.499-4.175-1.497l1.18-1.633Zm-7.604.878c.324.202.711.302 1.165.302.475 0 .866-.136 1.18-.408.312-.282.469-.771.469-1.467v-7.29h2.042v7.683c-.03 1.19-.373 2.047-1.029 2.571a3.39 3.39 0 0 1-1.225.666 4.52 4.52 0 0 1-1.286.196c-.756 0-1.427-.13-2.011-.393-.626-.282-1.15-.78-1.573-1.497l1.421-1.165c.262.354.545.62.848.802Z" fill="#D6BD96"/></svg>
